!!!COM: Robert Schumann
!!!CNT: Deutsch
!!!TXO: Deutsch
!!!OTL: "Husarenabzug"
!!!LYR: C. Candidus
!!!OPR: Fu2nf heitere Gesa2nge
!!!OPS: Op. 125
!!!ONM: No. 2
!!!ENC: Leigh VanHandel
!!!YOR: Schumann Lieder - Max Friedlaender, ed.,
!!!YOR: New York: C. F. Peters, Vol. 3
!!!ODT: 1851/
**kern	**silbe
*staff1	*
*clefG2	*
*k[b-e-]	*
*M2/4	*
*MM[Im lustigen Ton]	*
=2	=2
{8.f	{Aus
16f	dem
8b-	dun-
8a	-keln
=3	=3
8dd	Tor
8gg	|
4ff}	wallt}
=4	=4
2r	.
=5	=5
8r	.
{8dd	{kein
8b-	Zug
8dd	von
=6	=6
4cc	Mu2ck-
4b-}	lein;}
=7	=7
2r	.
=8	=8
{8.a	{horch!
16a	dar-
8a	-aus
8ff	em-
=9	=9
4een	-por
4dd}	schallt}
=10	=10
2r	.
=11	=11
4r	.
{4cc	{Trom-
=12	=12
8.ff	-pe-
16cc	-ter-
8a	-stu2ck-
8f}	-lein.}
=13	=13
2r	.
=14	=14
{8f	{Platz
16f	fu2r
16f	die
12f	scho2-
12f	-nen
12g	Hu-
=15	=15
8a-	-sa-
8a-}	ren!}
4r	.
=16	=16
2r	.
=17	=17
4r	.
{4cc-	{Milch-
=18	=18
4cc-	-ma2d-
8cc-	-chen
8dd-	bei
=19	=19
8ee-	Sei-
8ee-}	-te!}
4r	.
=20	=20
{4ee-	{dru2ckt
8ee-	euch
8ee-	ans
=21	=21
4ee-	Bru2-
8.f	-cken-
16f	-ge-
=22	=22
8f	-la2n-
8a	|
4cc}	-der!}
=23	=23
2r	.
=24	=24
2r	.
=25	=25
2r	.
=26	=26
4r	.
{4dd	{Es
=27	=27
8ff	ziehn
8dd	|
8b-	in
8dd	die
=28	=28
4cc	Wei-
4dd	-te
=29	=29
4gg	lu-
8ff	-sti-
8ff	-ge
=30	=30
4cc	Kna-
8dd}	-ben,}
{8dd	{es
=31	=31
8ff	zeihn
8dd	|
8b-	in
8dd	die
=32	=32
8g	Wei-
8a	-te
8b-	lu-
16dd	-sti-
16dd	-ge
=33	=33
2gg	Kna-
=34	=34
4ff}	-ben.}
4r	.
=35	=35
2r	.
=36	=36
2r	.
=37	=37
2r	.
=38	=38
2r	.
=39	=39
{8.f	{Freun-
16f	-de!
8b-	wie
8a	das
=40	=40
8dd	Hengst-
8gg	|
4ff}	-lein}
=41	=41
2r	.
=42	=42
8r	.
{8dd	{den
8b-	fro-
8dd	-hen
=43	=43
4cc	Lauf
4b-}	tanzt,}
=44	=44
2r	.
=45	=45
{8.a	{wie
16a	sein
8a	dik-
8ff	-kes
=46	=46
4een	Wa2nst-
4dd}	-lein}
=47	=47
2r	.
=48	=48
4r	.
8r	.
{8cc	{der
=49	=49
8.ff	Haupt-
16cc	-mann
8a	auf-
8f}	-planzt.}
=50	=50
2r	.
=51	=51
{8f	{Sei-
16f	-en
16f	wir
12f	mun-
12f	-ter
12g	und
=52	=52
12a-	den-
12a-	-ken
12a-	wir
4a-}	nicht}
=53	=53
2r	.
=54	=54
4r	.
{8cc-	{an
8cc-	den
=55	=55
4.cc-	wei-
8dd-	-ssen
=56	=56
4ee-}	Stein,}
4r	.
=57	=57
4r	.
{8ee-	{der
8ee-	ihr
=58	=58
4ee-	Fu2-
8.f	-sse-
16f	-lein
=59	=59
8f	trug,
8a	|
4cc}	|}
=60	=60
2r	.
=61	=61
2r	.
=62	=62
2r	.
=63	=63
4r	.
{8dd	{wenn
8dd	am
=64	=64
8ff	Brun-
8dd	|
8b-	-nen
8dd	die
=65	=65
4cc	Lieb-
4dd	-ste
=66	=66
4gg	stand
8ff	bei
8ff	der
=67	=67
4cc	Freun-
8dd}	-din,}
{8dd	{am
=68	=68
8ff	Brun-
8dd	|
8b-	-nen
8dd	die
=69	=69
8g	Lieb-
8a	-ste
8b-	stand
16dd	bei
16dd	der
=70	=70
2gg	Freun-
=71	=71
4ff}	-din!}
4r	.
=72	=72
2r	.
=73	=73
2r	.
=74	=74
2r	.
=75	=75
2r	.
=76	=76
{8.f	{Hei!
16f	viel-
8b-	-leicht
8a	ein
=77	=77
8dd	Wind-
8gg	|
4ff}	-stoss}
=78	=78
2r	.
=79	=79
8r	.
{8dd	{am
8b-	Brun-
8dd	-nen
=80	=80
4cc	wir-
4b-}	-belt,}
=81	=81
2r	.
=82	=82
{8.a	{dass,
16a	der
8a	sonst
8ff	ge-
=83	=83
4een	-lind
4dd}	floss,}
=84	=84
2r	.
=85	=85
8r	.
{8cc	{sta2ubt
8cc	und
8cc	ver-
=86	=86
4ff	-zwir-
4f}	-belt.}
=87	=87
2r	.
=88	=88
{8f	{Tro2-
16f	-ste
16f	dich,
12f	Herz-
12f	-al-
12g	-ler-
=89	=89
8a-	-lieb-
8a-}	-ste!}
4r	.
=90	=90
2r	.
=91	=91
4r	.
{4cc-	{Die
=92	=92
4cc-	bau-
8cc-	-si-
8dd-	-gen
=93	=93
8ee-	Bak-
8ee-}	-ken}
4r	.
=94	=94
{4ee-	{wird
8ee-	dein
8ee-	Hu-
=95	=95
4ee-	-sa2r-
4f}	lein}
=96	=96
2r	.
=97	=97
2r	.
=98	=98
2r	.
=99	=99
2r	.
=100	=100
4r	.
{4dd	{dem
=101	=101
8ff	Got-
8dd	|
8b-	-te
8dd	der
=102	=102
4cc	Win-
8dd	-de
8dd	zer-
=103	=103
4gg	-hak-
8ff}	-ken,}
{8ff	{zer-
=104	=104
4cc	-hak-
8dd}	-ken}
{8dd	{dem
=105	=105
8ff	Got-
8dd	|
8b-	-te
8dd	der
=106	=106
8g	Win-
8a	|
8b-	-de
8dd	zer-
=107	=107
2gg	-hak-
=108	=108-
4ff}	-ken!}
4r	.
==	++
*-	*-
